X:8178
T:Wright's Humour
O:england
C:Daniel Wright ()
M:3/4
A:North-West
R:Waltz
K:G
G,2g4| D2f4| C2e4| B,2d4| A,2c4| F2D3A| BcA4| G2G,4||
G,2gfg2| D2fef2| C2cde2| B,2Bcd2| A,2ABc2| F2Bcd2| G2G2F2| G2G,4||
DBGBAG| DFAFED| CEGEDC| B,BdBcd| GEAcdA| BFGFGA| BcA4| G2G,4||
bgdbag| fdfagf| ecegfe| dcdefg| bagafg| agfgeg| fe^defd| efgfed|
cdedcd| BcdcBd| cdcBAG| FDEFGB| ecefga| fdefgB| AGD2f2| g2G4|]
